;FLAVOR:Marlin
;TIME:16351
;Filament used: 6.20718m
;Layer height: 0.1
;MINX:73.394
;MINY:73.388
;MINZ:0.2
;MAXX:146.611
;MAXY:146.601
;MAXZ:12
;Generated with Cura_SteamEngine 4.13.1
M140 S50
M105
M190 S50
M104 S210
M105
M109 S210
M82 ;absolute extrusion mode
G28 ; wyzeruj osie
G1 F30 Z1 ; unies nieco glowice
G1 F1800 Z0.2 X2.5 Y2.5 ; pojedz w lewy dolny rog stolu
G92 E0
G1 F50 E0.5 ; podaj nieco filamentu
G1 F600 Y31.5 E5 ; wydrukuj linie rozbiegowa
G1 F6000 X5 E4.5 ; odjedz w bok wycofujac nieco filamentu
G92 E-0.5 ; ustaw pozycje ekstrudera na minus pol milimetra

G1 F9000;Put printing message on LCD screen
G92 E0
G92 E0
G1 F1500 E-1.5
;LAYER_COUNT:119
;LAYER:0
M107
M204 S1000
G0 F6000 X83.759 Y84.472 Z0.2
;TYPE:SKIRT
G1 F1500 E0
G1 F900 X84.74 Y83.508 E0.06862
G1 X85.273 Y82.999 E0.10539
G1 X85.569 Y82.731 E0.12531
G1 X86.742 Y81.735 E0.20208
G1 X87.322 Y81.258 E0.23954
G1 X87.641 Y81.009 E0.25973
G1 X87.872 Y80.836 E0.27413
G1 X88.935 Y80.065 E0.33965
G1 X89.592 Y79.604 E0.37969
G1 X89.85 Y79.432 E0.39516
G1 X89.962 Y79.36 E0.4018
G1 X91.199 Y78.594 E0.47439
G1 X91.919 Y78.164 E0.51623
G1 X92.207 Y78.003 E0.53269
G1 X92.403 Y77.898 E0.54378
G1 X93.585 Y77.283 E0.61026
G1 X94.202 Y76.972 E0.64473
G1 X94.538 Y76.813 E0.66328
G1 X94.644 Y76.765 E0.66908
G1 X96.053 Y76.157 E0.74564
G1 X96.793 Y75.853 E0.78555
G1 X97.164 Y75.713 E0.80534
G1 X98.547 Y75.234 E0.87836
G1 X99.346 Y74.972 E0.92031
G1 X99.588 Y74.899 E0.93292
G1 X99.949 Y74.799 E0.95161
G1 X101.159 Y74.48 E1.01404
G1 X101.878 Y74.301 E1.051
G1 X102.232 Y74.222 E1.0691
G1 X102.349 Y74.198 E1.07506
G1 X103.829 Y73.92 E1.15019
G1 X104.61 Y73.787 E1.18971
G1 X105.004 Y73.731 E1.20956
G1 X106.507 Y73.563 E1.28502
G1 X107.291 Y73.488 E1.32431
G1 X107.617 Y73.465 E1.34061
G1 X107.75 Y73.458 E1.34726
G1 X109.233 Y73.403 E1.4213
G1 X109.882 Y73.388 E1.45368
G1 X110.315 Y73.389 E1.47529
G1 X111.878 Y73.444 E1.55331
G1 X112.615 Y73.482 E1.59013
G1 X113.015 Y73.512 E1.61014
G1 X113.149 Y73.524 E1.61686
G1 X114.612 Y73.687 E1.6903
G1 X115.291 Y73.773 E1.72444
G1 X115.419 Y73.791 E1.73089
G1 X115.931 Y73.874 E1.75677
G1 X117.253 Y74.122 E1.82387
G1 X117.961 Y74.264 E1.8599
G1 X118.094 Y74.293 E1.86669
G1 X118.43 Y74.373 E1.88392
G1 X118.645 Y74.428 E1.89499
G1 X119.897 Y74.759 E1.9596
G1 X120.583 Y74.951 E1.99514
G1 X120.922 Y75.055 E2.01283
G1 X121.272 Y75.172 E2.03124
G1 X122.468 Y75.586 E2.09439
G1 X123.247 Y75.868 E2.13572
G1 X123.507 Y75.97 E2.14965
G1 X123.626 Y76.019 E2.15607
G1 X124.974 Y76.599 E2.22929
G1 X125.71 Y76.93 E2.26955
G1 X125.999 Y77.068 E2.28553
G1 X126.123 Y77.13 E2.29244
G1 X127.425 Y77.809 E2.3657
G1 X128.016 Y78.128 E2.39921
G1 X128.383 Y78.338 E2.4203
G1 X128.493 Y78.403 E2.42668
G1 X129.77 Y79.193 E2.50159
G1 X130.336 Y79.555 E2.53511
G1 X130.628 Y79.752 E2.55269
G1 X130.931 Y79.967 E2.57122
G1 X131.938 Y80.698 E2.6333
G1 X132.542 Y81.15 E2.67094
G1 X132.814 Y81.364 E2.68821
G1 X132.913 Y81.445 E2.69459
G1 X134.068 Y82.421 E2.77003
G1 X134.668 Y82.946 E2.80981
G1 X134.941 Y83.198 E2.82834
G1 X135.097 Y83.349 E2.83917
G1 X136.081 Y84.316 E2.908
G1 X136.583 Y84.826 E2.9437
G1 X136.786 Y85.041 E2.95846
G1 X136.881 Y85.145 E2.96548
G1 X137.848 Y86.245 E3.03855
G1 X138.381 Y86.87 E3.07953
G1 X138.639 Y87.191 E3.10008
G1 X139.541 Y88.385 E3.17474
G1 X140.03 Y89.055 E3.21612
G1 X140.206 Y89.314 E3.23174
G1 X140.351 Y89.533 E3.24485
G1 X141.035 Y90.595 E3.30787
G1 X141.424 Y91.214 E3.34434
G1 X141.624 Y91.551 E3.36389
G1 X141.759 Y91.79 E3.37759
G1 X142.42 Y93.006 E3.44664
G1 X142.768 Y93.67 E3.48404
G1 X142.944 Y94.031 E3.50407
G1 X143.044 Y94.245 E3.51586
G1 X143.565 Y95.397 E3.57894
G1 X143.868 Y96.093 E3.61681
G1 X143.993 Y96.401 E3.63339
G1 X144.038 Y96.516 E3.63955
G1 X144.563 Y97.947 E3.7156
G1 X144.82 Y98.683 E3.75449
G1 X144.93 Y99.033 E3.7728
G1 X145.016 Y99.325 E3.78798
G1 X145.35 Y100.503 E3.84907
G1 X145.563 Y101.301 E3.89028
G1 X145.66 Y101.713 E3.91139
G1 X145.963 Y103.177 E3.98598
G1 X146.089 Y103.832 E4.01926
G1 X146.152 Y104.21 E4.03838
G1 X146.2 Y104.541 E4.05506
G1 X146.373 Y105.876 E4.12222
G1 X146.458 Y106.626 E4.15988
G1 X146.483 Y106.911 E4.17415
G1 X146.492 Y107.037 E4.18046
G1 X146.576 Y108.54 E4.25556
G1 X146.607 Y109.335 E4.29525
G1 X146.611 Y109.61 E4.30897
G1 X146.584 Y111.23 E4.38981
G1 X146.557 Y112.039 E4.43019
G1 X146.539 Y112.334 E4.44493
G1 X146.402 Y113.838 E4.52028
G1 X146.306 Y114.727 E4.56489
G1 X146.255 Y115.098 E4.58357
G1 X146.213 Y115.361 E4.59686
G1 X146.004 Y116.599 E4.6595
G1 X145.875 Y117.304 E4.69525
G1 X145.773 Y117.787 E4.71988
G1 X145.747 Y117.9 E4.72567
G1 X145.414 Y119.253 E4.79518
G1 X145.209 Y120.038 E4.83566
G1 X145.11 Y120.378 E4.85333
G1 X145.053 Y120.56 E4.86284
G1 X144.65 Y121.797 E4.92775
G1 X144.397 Y122.54 E4.96691
G1 X144.282 Y122.853 E4.98354
G1 X144.238 Y122.966 E4.98959
G1 X143.65 Y124.41 E5.06738
G1 X143.401 Y124.994 E5.09905
G1 X143.179 Y125.476 E5.12553
G1 X143.13 Y125.578 E5.13117
G1 X142.518 Y126.806 E5.19963
G1 X142.14 Y127.534 E5.24055
G1 X142.008 Y127.774 E5.25422
G1 X141.204 Y129.134 E5.33304
G1 X140.764 Y129.85 E5.37496
G1 X140.596 Y130.108 E5.39032
G1 X140.525 Y130.213 E5.39665
G1 X139.676 Y131.43 E5.47068
G1 X139.216 Y132.067 E5.50988
G1 X138.986 Y132.366 E5.5287
G1 X138.041 Y133.527 E5.60338
G1 X137.486 Y134.186 E5.64637
G1 X137.228 Y134.474 E5.66566
G1 X136.234 Y135.526 E5.73786
G1 X135.71 Y136.066 E5.7754
G1 X135.611 Y136.164 E5.78235
G1 X135.276 Y136.484 E5.80547
G1 X134.205 Y137.459 E5.87772
G1 X133.661 Y137.94 E5.91395
G1 X133.41 Y138.15 E5.93028
G1 X133.316 Y138.226 E5.93631
G1 X132.142 Y139.149 E6.01082
G1 X131.614 Y139.552 E6.04395
G1 X131.261 Y139.806 E6.06565
G1 X131.166 Y139.872 E6.07142
G1 X129.979 Y140.67 E6.14278
G1 X129.234 Y141.154 E6.1871
G1 X129.001 Y141.296 E6.20072
G1 X127.695 Y142.042 E6.27575
G1 X126.918 Y142.468 E6.31996
G1 X126.533 Y142.665 E6.34154
G1 X125.225 Y143.287 E6.4138
G1 X124.453 Y143.639 E6.45613
G1 X124.216 Y143.74 E6.46898
G1 X124.094 Y143.789 E6.47554
G1 X122.677 Y144.339 E6.55137
G1 X122.039 Y144.576 E6.58533
G1 X121.688 Y144.696 E6.60383
G1 X121.403 Y144.787 E6.61876
G1 X120.123 Y145.176 E6.6855
G1 X119.356 Y145.396 E6.72531
G1 X118.941 Y145.502 E6.74668
G1 X117.527 Y145.822 E6.81901
G1 X116.716 Y145.992 E6.86035
G1 X116.443 Y146.042 E6.8742
G1 X116.316 Y146.063 E6.88062
G1 X114.882 Y146.277 E6.95295
G1 X114.007 Y146.393 E6.99699
G1 X113.678 Y146.427 E7.01349
G1 X113.446 Y146.446 E7.0251
G1 X112.132 Y146.543 E7.09084
G1 X111.438 Y146.585 E7.12552
G1 X111.068 Y146.598 E7.144
G1 X110.945 Y146.6 E7.15013
G1 X109.445 Y146.601 E7.22497
G1 X108.632 Y146.588 E7.26553
G1 X108.341 Y146.576 E7.28006
G1 X106.76 Y146.461 E7.35915
G1 X106.031 Y146.397 E7.39566
G1 X105.664 Y146.355 E7.41409
G1 X105.329 Y146.309 E7.43096
G1 X104.055 Y146.119 E7.49522
G1 X103.262 Y145.988 E7.53532
G1 X103.001 Y145.938 E7.54858
G1 X102.675 Y145.868 E7.56521
G1 X101.431 Y145.586 E7.62885
G1 X100.704 Y145.411 E7.66616
G1 X100.354 Y145.317 E7.68424
G1 X100.014 Y145.218 E7.70191
G1 X98.78 Y144.842 E7.76626
G1 X98.123 Y144.632 E7.80068
G1 X97.797 Y144.519 E7.81789
G1 X97.515 Y144.414 E7.8329
G1 X96.275 Y143.933 E7.89926
G1 X95.614 Y143.666 E7.93482
G1 X95.496 Y143.616 E7.94122
G1 X95.018 Y143.403 E7.96733
G1 X93.808 Y142.828 E8.03416
G1 X93.155 Y142.507 E8.07046
G1 X92.822 Y142.333 E8.08921
G1 X91.419 Y141.537 E8.16969
G1 X90.712 Y141.119 E8.21066
G1 X90.401 Y140.922 E8.22903
G1 X90.209 Y140.797 E8.24046
G1 X89.171 Y140.099 E8.30286
G1 X88.448 Y139.598 E8.34675
G1 X88.186 Y139.404 E8.36301
G1 X87.994 Y139.257 E8.37508
G1 X86.994 Y138.471 E8.43853
G1 X86.404 Y137.994 E8.47639
G1 X86.141 Y137.771 E8.49359
G1 X85.914 Y137.569 E8.50875
G1 X84.948 Y136.688 E8.57397
G1 X84.398 Y136.173 E8.61157
G1 X84.142 Y135.919 E8.62956
G1 X84.067 Y135.843 E8.63488
G1 X83.029 Y134.747 E8.71019
G1 X82.548 Y134.224 E8.74564
G1 X82.456 Y134.12 E8.75257
G1 X82.138 Y133.748 E8.77699
G1 X81.303 Y132.722 E8.84298
G1 X80.836 Y132.135 E8.88041
G1 X80.625 Y131.855 E8.8979
G1 X80.398 Y131.537 E8.91739
G1 X79.655 Y130.472 E8.98218
G1 X79.241 Y129.858 E9.01912
G1 X79.056 Y129.569 E9.03624
G1 X78.985 Y129.453 E9.04303
G1 X78.22 Y128.163 E9.11785
G1 X77.842 Y127.503 E9.1558
G1 X77.714 Y127.265 E9.16928
G1 X77.031 Y125.901 E9.24538
G1 X76.631 Y125.066 E9.29158
G1 X76.443 Y124.637 E9.31494
G1 X75.91 Y123.332 E9.38527
G1 X75.647 Y122.659 E9.42132
G1 X75.524 Y122.322 E9.43922
G1 X75.431 Y122.05 E9.45356
G1 X75.028 Y120.807 E9.51875
G1 X74.803 Y120.081 E9.55667
G1 X74.707 Y119.74 E9.57434
G1 X74.677 Y119.626 E9.58023
G1 X74.313 Y118.139 E9.6566
G1 X74.141 Y117.382 E9.69533
G1 X74.081 Y117.086 E9.7104
G1 X74.057 Y116.955 E9.71704
G1 X73.808 Y115.478 E9.79177
G1 X73.706 Y114.813 E9.82534
G1 X73.656 Y114.417 E9.84525
G1 X73.516 Y112.944 E9.91907
G1 X73.449 Y112.107 E9.96096
G1 X73.426 Y111.666 E9.98299
G1 X73.417 Y111.294 E10.00156
G1 X73.396 Y110.131 E10.05959
G1 X73.394 Y109.29 E10.10155
G1 X73.403 Y108.951 E10.11847
G1 X73.413 Y108.735 E10.12925
G1 X73.487 Y107.423 E10.19481
G1 X73.545 Y106.6 E10.23598
G1 X73.587 Y106.193 E10.25639
G1 X73.779 Y104.709 E10.33104
G1 X73.878 Y104.025 E10.36552
G1 X73.938 Y103.672 E10.38339
G1 X73.96 Y103.555 E10.38933
G1 X74.255 Y102.113 E10.46276
G1 X74.403 Y101.44 E10.49714
G1 X74.514 Y100.995 E10.52002
G1 X74.542 Y100.888 E10.52554
G1 X74.968 Y99.38 E10.60371
G1 X75.129 Y98.84 E10.63183
G1 X75.24 Y98.501 E10.64962
G1 X75.431 Y97.964 E10.67806
G1 X75.817 Y96.91 E10.73406
G1 X76.127 Y96.105 E10.7771
G1 X76.271 Y95.763 E10.79561
G1 X76.887 Y94.401 E10.87019
G1 X77.242 Y93.647 E10.91176
G1 X77.42 Y93.298 E10.93131
G1 X78.112 Y92.026 E11.00355
G1 X78.529 Y91.29 E11.04576
G1 X78.709 Y90.993 E11.06308
G1 X78.861 Y90.754 E11.07721
G1 X79.547 Y89.69 E11.14037
G1 X79.938 Y89.102 E11.1756
G1 X80.013 Y88.993 E11.1822
G1 X80.198 Y88.735 E11.19804
G1 X80.351 Y88.528 E11.21088
G1 X81.096 Y87.541 E11.27258
G1 X81.646 Y86.837 E11.31715
G1 X81.857 Y86.583 E11.33362
G1 X82.002 Y86.415 E11.34469
G1 X82.847 Y85.454 E11.40854
G1 X83.357 Y84.89 E11.44647
G1 X83.683 Y84.549 E11.47001
G1 X83.759 Y84.472 E11.47541
G0 F6000 X84.039 Y84.758
G1 F900 X85.017 Y83.797 E11.54381
G1 X85.55 Y83.288 E11.58058
G1 X85.836 Y83.029 E11.59983
G1 X87.041 Y82.007 E11.67866
G1 X87.661 Y81.499 E11.71865
G1 X87.935 Y81.288 E11.7359
G1 X88.107 Y81.16 E11.7466
G1 X89.165 Y80.392 E11.81182
G1 X89.814 Y79.937 E11.85137
G1 X90.173 Y79.7 E11.87283
G1 X91.404 Y78.937 E11.94508
G1 X92.116 Y78.512 E11.98645
G1 X92.396 Y78.355 E12.00247
G1 X92.587 Y78.253 E12.01327
G1 X93.765 Y77.64 E12.07952
G1 X94.478 Y77.282 E12.11933
G1 X94.803 Y77.132 E12.13718
G1 X96.206 Y76.527 E12.21341
G1 X96.936 Y76.226 E12.25281
G1 X97.294 Y76.091 E12.27189
G1 X98.673 Y75.614 E12.34469
G1 X99.461 Y75.355 E12.38607
G1 X99.791 Y75.257 E12.40325
G1 X100.051 Y75.186 E12.4167
G1 X101.255 Y74.869 E12.47881
G1 X102.072 Y74.667 E12.5208
G1 X102.423 Y74.591 E12.53872
G1 X103.897 Y74.314 E12.61354
G1 X104.668 Y74.182 E12.65257
G1 X104.926 Y74.144 E12.66558
G1 X106.545 Y73.961 E12.74686
G1 X107.32 Y73.887 E12.7857
G1 X107.765 Y73.857 E12.80796
G1 X109.242 Y73.803 E12.88169
G1 X109.997 Y73.787 E12.91937
G1 X110.42 Y73.791 E12.94047
G1 X111.857 Y73.844 E13.01221
G1 X112.684 Y73.888 E13.05353
G1 X113.105 Y73.922 E13.0746
G1 X114.561 Y74.084 E13.14769
G1 X115.356 Y74.186 E13.18768
G1 X115.763 Y74.251 E13.20824
G1 X117.174 Y74.514 E13.27985
G1 X117.882 Y74.656 E13.31587
G1 X118.332 Y74.761 E13.33893
G1 X118.543 Y74.814 E13.34978
G1 X119.789 Y75.144 E13.41409
G1 X120.475 Y75.336 E13.44963
G1 X120.803 Y75.437 E13.46675
G1 X121.142 Y75.55 E13.48458
G1 X122.332 Y75.962 E13.54741
G1 X123.101 Y76.241 E13.58822
G1 X123.468 Y76.387 E13.60792
G1 X124.81 Y76.964 E13.6808
G1 X125.537 Y77.291 E13.72057
G1 X125.826 Y77.429 E13.73655
G1 X125.938 Y77.485 E13.7428
G1 X127.235 Y78.161 E13.81577
G1 X127.911 Y78.527 E13.85412
G1 X128.184 Y78.684 E13.86983
G1 X129.555 Y79.53 E13.9502
G1 X130.206 Y79.948 E13.9888
G1 X130.47 Y80.13 E14.0048
G1 X130.696 Y80.291 E14.01864
G1 X131.698 Y81.019 E14.08043
G1 X132.379 Y81.53 E14.12291
G1 X132.655 Y81.751 E14.14055
G1 X133.805 Y82.723 E14.21567
G1 X134.397 Y83.241 E14.25492
G1 X134.664 Y83.487 E14.27303
G1 X134.817 Y83.634 E14.28362
G1 X135.797 Y84.597 E14.35216
G1 X136.293 Y85.101 E14.38744
G1 X136.496 Y85.316 E14.40219
G1 X136.581 Y85.409 E14.40848
G1 X137.544 Y86.505 E14.48127
G1 X138.07 Y87.122 E14.52172
G1 X138.32 Y87.433 E14.54162
G1 X139.218 Y88.621 E14.61592
G1 X139.634 Y89.189 E14.65105
G1 X139.837 Y89.482 E14.66883
G1 X140.015 Y89.75 E14.68488
G1 X140.696 Y90.807 E14.74761
G1 X141.085 Y91.426 E14.78409
G1 X141.279 Y91.754 E14.8031
G1 X141.428 Y92.019 E14.81827
G1 X142.066 Y93.193 E14.88493
G1 X142.409 Y93.847 E14.92177
G1 X142.582 Y94.2 E14.94138
G1 X142.679 Y94.409 E14.95288
G1 X143.198 Y95.557 E15.01573
G1 X143.501 Y96.253 E15.0536
G1 X143.622 Y96.551 E15.06965
G1 X143.662 Y96.654 E15.07516
G1 X144.185 Y98.079 E15.15089
G1 X144.405 Y98.705 E15.184
G1 X144.521 Y99.064 E15.20282
G1 X144.631 Y99.434 E15.22208
G1 X144.964 Y100.607 E15.28291
G1 X145.174 Y101.394 E15.32355
G1 X145.268 Y101.794 E15.34405
G1 X145.57 Y103.253 E15.41838
G1 X145.715 Y104.014 E15.45703
G1 X145.766 Y104.336 E15.4733
G1 X145.803 Y104.593 E15.48625
G1 X145.975 Y105.921 E15.55306
G1 X146.059 Y106.661 E15.59021
G1 X146.092 Y107.059 E15.61014
G1 X146.176 Y108.556 E15.68494
G1 X146.207 Y109.341 E15.72414
G1 X146.211 Y109.616 E15.73786
G1 X146.184 Y111.217 E15.81774
G1 X146.162 Y111.909 E15.85228
G1 X146.139 Y112.309 E15.87227
G1 X146.131 Y112.419 E15.87777
G1 X145.999 Y113.854 E15.94967
G1 X145.91 Y114.674 E15.99082
G1 X145.86 Y115.035 E16.009
G1 X145.819 Y115.295 E16.02213
G1 X145.61 Y116.527 E16.08448
G1 X145.46 Y117.34 E16.12572
G1 X145.382 Y117.703 E16.14425
G1 X145.027 Y119.153 E16.21872
G1 X144.825 Y119.927 E16.25863
G1 X144.727 Y120.259 E16.2759
G1 X144.672 Y120.436 E16.28515
G1 X144.271 Y121.668 E16.34979
G1 X143.984 Y122.506 E16.39398
G1 X143.867 Y122.815 E16.41046
G1 X143.282 Y124.253 E16.48791
G1 X143.033 Y124.837 E16.51959
G1 X142.816 Y125.308 E16.54546
G1 X142.772 Y125.4 E16.55055
G1 X142.163 Y126.622 E16.61867
G1 X141.833 Y127.26 E16.6545
G1 X141.657 Y127.581 E16.67277
G1 X141.6 Y127.681 E16.67851
G1 X140.831 Y128.978 E16.75373
G1 X140.429 Y129.631 E16.79199
G1 X140.197 Y129.984 E16.81307
G1 X139.352 Y131.196 E16.88678
G1 X138.898 Y131.825 E16.92548
G1 X138.676 Y132.113 E16.94362
G1 X137.735 Y133.27 E17.01802
G1 X137.187 Y133.921 E17.06048
G1 X137.01 Y134.12 E17.07377
G1 X135.947 Y135.247 E17.15106
G1 X135.423 Y135.787 E17.1886
G1 X135.076 Y136.123 E17.21269
G1 X135.006 Y136.189 E17.21749
G1 X133.94 Y137.16 E17.28943
G1 X133.404 Y137.633 E17.3251
G1 X133.068 Y137.912 E17.34689
G1 X131.899 Y138.831 E17.42107
G1 X131.282 Y139.3 E17.45974
G1 X131.029 Y139.481 E17.47526
G1 X129.76 Y140.335 E17.55157
G1 X129.117 Y140.754 E17.58986
G1 X128.792 Y140.954 E17.6089
G1 X127.448 Y141.722 E17.68612
G1 X126.734 Y142.113 E17.72674
G1 X126.467 Y142.251 E17.74173
G1 X125.107 Y142.9 E17.81691
G1 X124.296 Y143.271 E17.86141
G1 X124.059 Y143.372 E17.87426
G1 X123.95 Y143.416 E17.88012
G1 X122.538 Y143.964 E17.95569
G1 X121.9 Y144.201 E17.98964
G1 X121.499 Y144.337 E18.01077
G1 X121.287 Y144.404 E18.02186
G1 X120.012 Y144.792 E18.08835
G1 X119.351 Y144.983 E18.12268
G1 X118.958 Y145.086 E18.14295
G1 X118.853 Y145.112 E18.14834
G1 X117.444 Y145.431 E18.22042
G1 X116.644 Y145.598 E18.26119
G1 X116.257 Y145.667 E18.2808
G1 X114.829 Y145.881 E18.35284
G1 X114.069 Y145.983 E18.3911
G1 X113.644 Y146.028 E18.41242
G1 X113.417 Y146.047 E18.42378
G1 X112.107 Y146.143 E18.48932
G1 X111.309 Y146.19 E18.5292
G1 X110.944 Y146.2 E18.54741
G1 X109.451 Y146.201 E18.6219
G1 X108.746 Y146.191 E18.65708
G1 X108.358 Y146.176 E18.67645
G1 X108.241 Y146.169 E18.6823
G1 X106.795 Y146.062 E18.75463
G1 X105.954 Y145.987 E18.79676
G1 X105.64 Y145.948 E18.81254
G1 X105.388 Y145.913 E18.82524
G1 X104.12 Y145.724 E18.8892
G1 X103.338 Y145.595 E18.92874
G1 X102.996 Y145.528 E18.94612
G1 X102.764 Y145.478 E18.95796
G1 X101.524 Y145.197 E19.0214
G1 X100.797 Y145.022 E19.0587
